X: 13
T: The Seven Step
R: barndance
M: 4/4
L: 1/8
K: Gmaj
| G2G2G2G2 | F>GA>F G2 | B2B2B2B2 A>Bc>A B2 | c>de>c A2A2 | b>cd>b G2G2 | A>Bc>A F>DE>F | G>AB>c D2D2 |c>de>c A2A2 | b>cd>b G2G2 | A>Bc>A F>DE>F | G2B2G4 ||


Tune 1307	Setting 26736

